X: 22338
T: La Varsovienne
R: mazurka
M: 3/4
K: Amajor
|:E>A|c>B c/B/c/A/ E>A|c>B c/B/c/A/ E>A|c2 e2 (3cec|B2- B>G E>G|
B>c B/A/B/G/ E>G|B>c B/A/B/G/ E>G|B<e (3cec B2|1 A2- A>c:|2 A2- A>e||
|:e>d|c>c e2 a2|g2- g>d d>c|B>B e2 g2|a2- a>e e>d|
c>e e2 a2|g2- g>f f>e|1 e>d F2 E2|c2- c>e:|2 e>f e>d F>G|A4||

